X: 5800
T: Cal Callaghan's
R: reel
M: 4/4
K: Gmajor
|:F3A GE3|FEDF ABAG|F3A GE3|AFGE D3E:|
Add2 dcAB|AGFG ABcA|d2dc dBAB|=cBAF G2FG|
Add2 dcAB|AGFG ABcA|d2fd (3ddd fd|d2fd dcAG||

